icon-themes/breeze_svg/cmd/sc_objectposition.svg

<svg viewBox="0 0 16 16" xmlns="http://www.w3.org/2000/svg">/&gt;<path d="m2 2v1h5 7v-1h-7zm2.5 2-.1875.21875-2.3125 2.5.65625.6875 1.34375-1.4375v4.03125 4h1v-4-4.03125l1.34375 1.4375.65625-.6875-2.3125-2.5zm3.5 2v1h1 5v-1h-5zm4 2-1 1-1 1-2 2v1 1h2l.59375-.59375.40625-.40625 1-1 1-1 1-1zm-.3125 1.6875.59375.59375-.28125.28125-1.40625 1.40625v.03125l-1.28125 1.28125-.59375-.59375 1.875-1.90625z" fill="#4d4d4d"/></svg>

<svg xmlns="http://www.w3.org/2000/svg" viewBox="0 0 16 16">
     />
 <path 
     style="fill:#4d4d4d" 
     d="M 2 2 L 2 3 L 7 3 L 14 3 L 14 2 L 7 2 L 2 2 z M 4.5 4 L 4.3125 4.21875 L 2 6.71875 L 2.65625 7.40625 L 4 5.96875 L 4 10 L 4 14 L 5 14 L 5 10 L 5 5.96875 L 6.34375 7.40625 L 7 6.71875 L 4.6875 4.21875 L 4.5 4 z M 8 6 L 8 7 L 9 7 L 14 7 L 14 6 L 9 6 L 8 6 z M 12 8 L 11 9 L 10 10 L 8 12 L 8 13 L 8 14 L 10 14 L 10.59375 13.40625 L 11 13 L 12 12 L 13 11 L 14 10 L 12 8 z M 11.6875 9.6875 L 12.28125 10.28125 L 12 10.5625 L 10.59375 11.96875 L 10.59375 12 L 9.3125 13.28125 L 8.71875 12.6875 L 10.59375 10.78125 L 11.6875 9.6875 z "
     />
 </svg>
